X: 16419
T: H Note, The
R: slide
M: 12/8
K: Bmixolydian
K: Bmaj
F|:F2B Bcd c2B B2d|f2b gfd f3f2F|
F2B Bcd c2B B2d|1 fgf fed c3 cBG:|2 fgf fed c3c2d||
e2g b2g f2d dcB|e2g b2g f3f2d|
e2g b2g f2d dcB|fgf fed c3c2d|
e2g b2g f2d dcB|e2g b2g f3 fga|
b2c' bag f2d d2e|fgf fed c3 cBG||

